svg/shield_moon_outline.svg

<svg xmlns="http://www.w3.org/2000/svg" viewBox="0 0 24 24"><path d="M21 11c0 5.55-3.84 10.74-9 12-5.16-1.26-9-6.45-9-12V5l9-4 9 4zm-9 10c3.75-1 7-5.46 7-9.78V6.3l-7-3.12L5 6.3v4.92C5 15.54 8.25 20 12 21m-3-6.67c1.76 2.17 5.13 2.24 6.97.07.23-.27.08-.68-.26-.74a4.5 4.5 0 0 1-3.18-2.2 4.5 4.5 0 0 1-.32-3.86.453.453 0 0 0-.51-.6c-3.34.62-4.89 4.61-2.7 7.33"/></svg>

<svg xmlns="http://www.w3.org/2000/svg" id="mdi-shield-moon-outline" viewBox="0 0 24 24"><path d="M21 11C21 16.55 17.16 21.74 12 23C6.84 21.74 3 16.55 3 11V5L12 1L21 5V11M12 21C15.75 20 19 15.54 19 11.22V6.3L12 3.18L5 6.3V11.22C5 15.54 8.25 20 12 21M9 14.33C10.76 16.5 14.13 16.57 15.97 14.4C16.2 14.13 16.05 13.72 15.71 13.66C14.42 13.45 13.23 12.68 12.53 11.46C11.82 10.24 11.75 8.83 12.21 7.6C12.33 7.27 12.05 6.94 11.7 7C8.36 7.62 6.81 11.61 9 14.33" /></svg>
